!!!OTL: Beim Herumtrinken
!!!ARE: Europa, Mitteleuropa, Deutschland
!!!SCT: A0321
!!!YEM: Copyright 1995, estate of Helmut Schaffrath.
**kern
*ICvox
*Ivox
*M4/2
*k[b-e-]
*g:
{2g
2g
2g
=1
2dd
2dd
2ee-
2ee-
=2
1cc}
{2dd
2ee-
=3
2ffn
2gg
1ee-
=4
1dd
2r}
{2dd
=5
2gg
2gg
2ee-
2ee-
=6
2ffn
2ffn
1dd
=7
2cc
2a
1g}
=8
{2b-
2cc
1dd
=9
2b-
2cc
1dd
=10
2g
2a
2b-
2cc
=11
1a
1g}
=12
{2b-
2cc
1dd
=13
2b-
2cc
1dd
=14
2g
2a
2b-
2cc
=15
1a
1g}
=16
{2g
2a
2b-
2cc
=17
1a
1g
=18
2r}
==
!!!AGN: Romanze, Ballade, Lied, Trinklied
!! Forster Lieder 4. Theil 1556
!!!ONB: ESAC (Essen Associative Code) Database: ALTDEU
!!!AMT: simple quadruple
!!!AIN: vox
!!!EED: Helmut Schaffrath
!!!EEV: 1.0
*-
